X:3
T:Miss Dorothy Miller
T:Thirds
C:Ryan Canning
R:Slow Air
M:4/4
L:1/8
K:D
[|{g}(f4 f)A/{d}A/ {ge}f>e | {g}e/d/{g}(B B){GdG}(B B){gc}d {g}d>B | {gde}d/B/{G}(A A){g}(A A){GAG}A {g}A/B/{g}d/B/ | {gef}e2 (A2 A){g}A {gAGAG}A>B |
{gc}d2 {g}(d2 d)A/{d}A/ {gc}d>a | {g}a/f/{a}(g g) {f}(g (g)g) {a}g/a/{g}a/g/ | a/g/{a}(f f){g}(f f){e}f {g}e/f/{a}g/a/| {ge}(f2 (f2) f)A/{d}A/ {g}c>A ||
{gc}d2 {g}(d2 d)A/{d}A/ {gc}d>c | {g}d/A/{G}A {g}(d2 d){g}A/{d}A/ {g}c>B | {gc}(d2 (d2) d)A/{d}A/ {g}A/B/{g}B/{G}B/ | {g}A2 {g}(c2 c)A {gAGAG}A>d |
{ag}a2 {g}(a2 a)f/{e}f/ {ag}a>e | {A}e/f/{g}(d2 (d2) d2) {a}g/a/{g}a/g/ [M:3/4] |  a/g/{a}(d d){g}(d d){G}d  [M:5/4] "Strathspey Tempo"| {g}(d2 (d2) d2) {g}d<(c c2) |]

